X:5
T:Fanny Power
M:6/4
L:1/8
K:G
G2|G4 D2 G3 G B2|c4 B2 A4 G2|F4 E2 D3 E D2|F4 G2 A3 B c2|
B3 A G2 B3 c2 d2|e4 A2 A4 G2|F4 E2 D3 G F2|G6 G4 :|
|B2|d2 Bc d2 d2 Bc d2|G3 A G2 G2 B2 G2|\
e2 cd e2 e2 cd e2|A3 B A2 A2 c2 A2|
B3 c d2 e2 f2 g2|f3 g a2 d2 e2 c2|B3 A G2 A c3 F2|G6 G4 :|
